{
 "type": "map",
 "version": "1.10",
 "tiledversion": "1.11.2",
 "orientation": "orthogonal",
 "renderorder": "right-down",
 "infinite": false,
 "width": 30,
 "height": 20,
 "tilewidth": 16,
 "tileheight": 16,
 "nextlayerid": 4,
 "nextobjectid": 19,
 "layers": [
  {
   "id": 1,
   "name": "floor",
   "type": "tilelayer",
   "width": 30,
   "height": 20,
   "x": 0,
   "y": 0,
   "opacity": 1,
   "visible": true,
   "data": [
    2,
    2,
    2,
    2,
    2,
    2,
    2,
    2,
    2,
    2,
    2,
    2,
    2,
    2,
    2,
    2,
    2,
    2,
    2,
    2,
    2,
    2,
    2,
    2,
    2,
    2,
    2,
    2,
    2,
    2,
    2,
    2,
    2,
    2,
    2,
    2,
    2,
    2,
    2,
    2,
    2,
    2,
    2,
    2,
    2,
    2,
    2,
    2,
    2,
    2,
    2,
    2,
    2,
    2,
    2,
    2,
    2,
    2,
    2,
    2,
    2,
    1,
    1,
    1,
    1,
    1,
    1,
    1,
    1,
    1,
    1,
    1,
    1,
    1,
    1,
    1,
    1,
    1,
    1,
    1,
    1,
    1,
    1,
    1,
    1,
    1,
    1,
    1,
    1,
    2,
    2,
    1,
    1,
    1,
    1,
    1,
    1,
    1,
    1,
    1,
    1,
    1,
    1,
    1,
    1,
    1,
    1,
    1,
    1,
    1,
    1,
    1,
    1,
    1,
    1,
    1,
    1,
    1,
    1,
    2,
    2,
    1,
    1,
    1,
    1,
    1,
    1,
    1,
    1,
    1,
    1,
    1,
    1,
    1,
    1,
    1,
    1,
    1,
    1,
    1,
    1,
    1,
    1,
    1,
    1,
    1,
    1,
    1,
    1,
    2,
    2,
    1,
    1,
    1,
    1,
    1,
    1,
    1,
    1,
    1,
    1,
    1,
    1,
    1,
    1,
    1,
    1,
    1,
    1,
    1,
    1,
    1,
    1,
    1,
    1,
    1,
    1,
    1,
    1,
    2,
    2,
    1,
    1,
    1,
    1,
    1,
    1,
    1,
    1,
    1,
    1,
    1,
    1,
    1,
    1,
    1,
    1,
    1,
    1,
    1,
    1,
    1,
    1,
    1,
    1,
    1,
    1,
    1,
    1,
    2,
    2,
    1,
    1,
    1,
    1,
    1,
    1,
    1,
    1,
    1,
    1,
    1,
    1,
    1,
    1,
    1,
    1,
    1,
    1,
    1,
    1,
    1,
    1,
    1,
    1,
    1,
    1,
    1,
    1,
    2,
    2,
    1,
    1,
    1,
    1,
    1,
    1,
    1,
    1,
    1,
    4,
    4,
    4,
    4,
    4,
    4,
    4,
    4,
    4,
    4,
    1,
    1,
    1,
    1,
    1,
    1,
    1,
    1,
    1,
    2,
    2,
    1,
    1,
    1,
    1,
    1,
    1,
    1,
    1,
    1,
    4,
    4,
    4,
    4,
    4,
    4,
    4,
    4,
    4,
    4,
    1,
    1,
    1,
    1,
    1,
    1,
    1,
    1,
    1,
    2,
    2,
    1,
    1,
    1,
    1,
    1,
    1,
    1,
    1,
    1,
    4,
    4,
    4,
    4,
    4,
    4,
    4,
    4,
    4,
    4,
    1,
    1,
    1,
    1,
    1,
    1,
    1,
    1,
    1,
    2,
    2,
    1,
    1,
    1,
    1,
    1,
    1,
    1,
    1,
    1,
    4,
    4,
    4,
    4,
    4,
    4,
    4,
    4,
    4,
    4,
    1,
    1,
    1,
    1,
    1,
    1,
    1,
    1,
    1,
    2,
    2,
    1,
    1,
    1,
    1,
    1,
    1,
    1,
    1,
    1,
    1,
    1,
    1,
    1,
    1,
    1,
    1,
    1,
    1,
    1,
    1,
    1,
    1,
    1,
    1,
    1,
    1,
    1,
    1,
    2,
    2,
    1,
    1,
    1,
    1,
    1,
    1,
    1,
    1,
    1,
    1,
    1,
    1,
    1,
    1,
    1,
    1,
    1,
    1,
    1,
    1,
    1,
    1,
    1,
    1,
    1,
    1,
    1,
    1,
    2,
    2,
    1,
    1,
    1,
    1,
    1,
    1,
    1,
    1,
    1,
    1,
    1,
    1,
    1,
    1,
    1,
    1,
    1,
    1,
    1,
    1,
    1,
    1,
    1,
    1,
    1,
    1,
    1,
    1,
    2,
    2,
    1,
    1,
    1,
    1,
    1,
    1,
    1,
    1,
    1,
    1,
    1,
    1,
    1,
    1,
    1,
    1,
    1,
    1,
    1,
    1,
    1,
    1,
    1,
    1,
    1,
    1,
    1,
    1,
    2,
    2,
    1,
    1,
    1,
    1,
    1,
    1,
    1,
    1,
    1,
    1,
    1,
    1,
    1,
    1,
    1,
    1,
    1,
    1,
    1,
    1,
    1,
    1,
    1,
    1,
    1,
    1,
    1,
    1,
    2,
    2,
    1,
    1,
    1,
    1,
    1,
    1,
    1,
    1,
    1,
    1,
    1,
    1,
    1,
    1,
    1,
    1,
    1,
    1,
    1,
    1,
    1,
    1,
    1,
    1,
    1,
    1,
    1,
    1,
    2,
    2,
    1,
    1,
    1,
    1,
    1,
    1,
    1,
    1,
    1,
    1,
    1,
    1,
    1,
    1,
    1,
    1,
    1,
    1,
    1,
    1,
    1,
    1,
    1,
    1,
    1,
    1,
    1,
    1,
    2,
    2,
    2,
    2,
    2,
    2,
    2,
    2,
    2,
    2,
    2,
    2,
    2,
    2,
    2,
    6,
    6,
    2,
    2,
    2,
    2,
    2,
    2,
    2,
    2,
    2,
    2,
    2,
    2,
    2,
    2
   ]
  },
  {
   "id": 2,
   "name": "furniture",
   "type": "tilelayer",
   "width": 30,
   "height": 20,
   "x": 0,
   "y": 0,
   "opacity": 1,
   "visible": true,
   "data": [
    0,
    0,
    0,
    0,
    0,
    0,
    0,
    0,
    0,
    0,
    0,
    0,
    0,
    0,
    0,
    0,
    0,
    0,
    0,
    0,
    0,
    0,
    0,
    0,
    0,
    0,
    0,
    0,
    0,
    0,
    0,
    0,
    0,
    0,
    0,
    0,
    0,
    0,
    0,
    0,
    0,
    0,
    0,
    0,
    0,
    0,
    0,
    0,
    0,
    0,
    0,
    0,
    0,
    0,
    0,
    0,
    0,
    0,
    0,
    0,
    0,
    0,
    5,
    0,
    0,
    0,
    0,
    0,
    0,
    0,
    0,
    0,
    0,
    0,
    0,
    0,
    0,
    0,
    0,
    0,
    0,
    0,
    0,
    0,
    0,
    0,
    0,
    5,
    0,
    0,
    0,
    0,
    0,
    0,
    0,
    0,
    0,
    0,
    0,
    0,
    0,
    0,
    0,
    0,
    0,
    0,
    0,
    0,
    0,
    0,
    0,
    0,
    0,
    0,
    0,
    0,
    0,
    0,
    0,
    0,
    0,
    0,
    0,
    3,
    0,
    0,
    3,
    0,
    0,
    3,
    0,
    0,
    3,
    0,
    0,
    3,
    0,
    0,
    3,
    0,
    0,
    3,
    0,
    0,
    3,
    0,
    0,
    0,
    0,
    0,
    0,
    0,
    0,
    0,
    0,
    0,
    0,
    0,
    0,
    0,
    0,
    0,
    0,
    0,
    0,
    0,
    0,
    0,
    0,
    0,
    0,
    0,
    0,
    0,
    0,
    0,
    0,
    0,
    0,
    0,
    0,
    0,
    0,
    0,
    0,
    0,
    0,
    0,
    0,
    0,
    0,
    0,
    0,
    0,
    0,
    0,
    0,
    0,
    0,
    0,
    0,
    0,
    0,
    0,
    0,
    0,
    0,
    0,
    0,
    0,
    0,
    0,
    0,
    0,
    0,
    0,
    0,
    0,
    0,
    0,
    0,
    0,
    0,
    0,
    0,
    0,
    0,
    0,
    0,
    0,
    0,
    0,
    0,
    0,
    0,
    0,
    0,
    0,
    0,
    0,
    0,
    0,
    0,
    0,
    0,
    0,
    0,
    0,
    0,
    0,
    0,
    0,
    0,
    0,
    0,
    0,
    0,
    0,
    0,
    0,
    0,
    0,
    0,
    0,
    0,
    0,
    0,
    0,
    0,
    0,
    0,
    0,
    0,
    0,
    0,
    0,
    0,
    0,
    0,
    5,
    0,
    0,
    0,
    0,
    0,
    0,
    0,
    0,
    0,
    0,
    5,
    0,
    0,
    0,
    0,
    0,
    0,
    0,
    0,
    0,
    0,
    0,
    0,
    0,
    0,
    0,
    0,
    0,
    0,
    0,
    0,
    0,
    0,
    0,
    0,
    0,
    0,
    0,
    0,
    0,
    0,
    0,
    0,
    0,
    0,
    0,
    0,
    0,
    0,
    0,
    0,
    0,
    0,
    0,
    0,
    0,
    0,
    0,
    0,
    0,
    0,
    0,
    0,
    0,
    0,
    0,
    0,
    0,
    0,
    0,
    0,
    0,
    0,
    0,
    0,
    0,
    0,
    0,
    0,
    0,
    0,
    0,
    0,
    0,
    0,
    0,
    0,
    0,
    0,
    0,
    0,
    0,
    0,
    0,
    0,
    0,
    0,
    0,
    0,
    0,
    0,
    0,
    0,
    0,
    0,
    0,
    0,
    0,
    0,
    0,
    0,
    0,
    0,
    0,
    0,
    0,
    0,
    0,
    0,
    0,
    0,
    0,
    0,
    0,
    0,
    0,
    0,
    0,
    0,
    0,
    0,
    0,
    0,
    0,
    0,
    0,
    0,
    0,
    0,
    0,
    0,
    0,
    0,
    3,
    0,
    0,
    3,
    0,
    0,
    3,
    0,
    0,
    3,
    0,
    0,
    3,
    0,
    0,
    3,
    0,
    0,
    3,
    0,
    0,
    3,
    0,
    0,
    0,
    0,
    0,
    0,
    0,
    0,
    0,
    0,
    0,
    0,
    0,
    0,
    0,
    0,
    0,
    0,
    0,
    0,
    0,
    0,
    0,
    0,
    0,
    0,
    0,
    0,
    0,
    0,
    0,
    0,
    0,
    0,
    0,
    0,
    0,
    0,
    0,
    0,
    0,
    0,
    0,
    0,
    0,
    0,
    0,
    0,
    0,
    0,
    0,
    0,
    0,
    0,
    0,
    0,
    0,
    0,
    0,
    0,
    0,
    0,
    0,
    0,
    0,
    0,
    0,
    5,
    0,
    0,
    0,
    0,
    0,
    0,
    0,
    0,
    0,
    0,
    0,
    0,
    0,
    0,
    0,
    0,
    0,
    0,
    0,
    0,
    0,
    0,
    0,
    0,
    5,
    0,
    0,
    0,
    0,
    0,
    0,
    0,
    0,
    0,
    0,
    0,
    0,
    0,
    0,
    0,
    0,
    0,
    0,
    0,
    0,
    0,
    0,
    0,
    0,
    0,
    0,
    0,
    0,
    0,
    0,
    0,
    0,
    0,
    0,
    0,
    0,
    0,
    0,
    0,
    0,
    0,
    0,
    0,
    0,
    0,
    0,
    0,
    0,
    0,
    0,
    0,
    0,
    0,
    0,
    0,
    0,
    0,
    0,
    0,
    0,
    0,
    0
   ]
  },
  {
   "id": 3,
   "name": "spots",
   "type": "objectgroup",
   "draworder": "topdown",
   "opacity": 1,
   "visible": true,
   "x": 0,
   "y": 0,
   "objects": [
    {
     "id": 1,
     "name": "desk-1",
     "type": "desk",
     "point": true,
     "x": 56.0,
     "y": 88.0,
     "width": 0,
     "height": 0,
     "rotation": 0,
     "visible": true
    },
    {
     "id": 2,
     "name": "desk-2",
     "type": "desk",
     "point": true,
     "x": 104.0,
     "y": 88.0,
     "width": 0,
     "height": 0,
     "rotation": 0,
     "visible": true
    },
    {
     "id": 3,
     "name": "desk-3",
     "type": "desk",
     "point": true,
     "x": 152.0,
     "y": 88.0,
     "width": 0,
     "height": 0,
     "rotation": 0,
     "visible": true
    },
    {
     "id": 4,
     "name": "desk-4",
     "type": "desk",
     "point": true,
     "x": 200.0,
     "y": 88.0,
     "width": 0,
     "height": 0,
     "rotation": 0,
     "visible": true
    },
    {
     "id": 5,
     "name": "desk-5",
     "type": "desk",
     "point": true,
     "x": 248.0,
     "y": 88.0,
     "width": 0,
     "height": 0,
     "rotation": 0,
     "visible": true
    },
    {
     "id": 6,
     "name": "desk-6",
     "type": "desk",
     "point": true,
     "x": 296.0,
     "y": 88.0,
     "width": 0,
     "height": 0,
     "rotation": 0,
     "visible": true
    },
    {
     "id": 7,
     "name": "desk-7",
     "type": "desk",
     "point": true,
     "x": 344.0,
     "y": 88.0,
     "width": 0,
     "height": 0,
     "rotation": 0,
     "visible": true
    },
    {
     "id": 8,
     "name": "desk-8",
     "type": "desk",
     "point": true,
     "x": 392.0,
     "y": 88.0,
     "width": 0,
     "height": 0,
     "rotation": 0,
     "visible": true
    },
    {
     "id": 9,
     "name": "desk-9",
     "type": "desk",
     "point": true,
     "x": 56.0,
     "y": 248.0,
     "width": 0,
     "height": 0,
     "rotation": 0,
     "visible": true
    },
    {
     "id": 10,
     "name": "desk-10",
     "type": "desk",
     "point": true,
     "x": 104.0,
     "y": 248.0,
     "width": 0,
     "height": 0,
     "rotation": 0,
     "visible": true
    },
    {
     "id": 11,
     "name": "desk-11",
     "type": "desk",
     "point": true,
     "x": 152.0,
     "y": 248.0,
     "width": 0,
     "height": 0,
     "rotation": 0,
     "visible": true
    },
    {
     "id": 12,
     "name": "desk-12",
     "type": "desk",
     "point": true,
     "x": 200.0,
     "y": 248.0,
     "width": 0,
     "height": 0,
     "rotation": 0,
     "visible": true
    },
    {
     "id": 13,
     "name": "desk-13",
     "type": "desk",
     "point": true,
     "x": 248.0,
     "y": 248.0,
     "width": 0,
     "height": 0,
     "rotation": 0,
     "visible": true
    },
    {
     "id": 14,
     "name": "desk-14",
     "type": "desk",
     "point": true,
     "x": 296.0,
     "y": 248.0,
     "width": 0,
     "height": 0,
     "rotation": 0,
     "visible": true
    },
    {
     "id": 15,
     "name": "desk-15",
     "type": "desk",
     "point": true,
     "x": 344.0,
     "y": 248.0,
     "width": 0,
     "height": 0,
     "rotation": 0,
     "visible": true
    },
    {
     "id": 16,
     "name": "desk-16",
     "type": "desk",
     "point": true,
     "x": 392.0,
     "y": 248.0,
     "width": 0,
     "height": 0,
     "rotation": 0,
     "visible": true
    },
    {
     "id": 17,
     "name": "door",
     "type": "door",
     "point": true,
     "x": 240,
     "y": 296.0,
     "width": 0,
     "height": 0,
     "rotation": 0,
     "visible": true
    },
    {
     "id": 18,
     "name": "huddle",
     "type": "huddle",
     "point": true,
     "x": 240,
     "y": 160,
     "width": 0,
     "height": 0,
     "rotation": 0,
     "visible": true
    }
   ]
  }
 ],
 "tilesets": [
  {
   "firstgid": 1,
   "name": "office-tiles",
   "image": "office-tiles.png",
   "imagewidth": 96,
   "imageheight": 16,
   "tilewidth": 16,
   "tileheight": 16,
   "tilecount": 6,
   "columns": 6,
   "margin": 0,
   "spacing": 0
  }
 ]
}
